; generated by PrusaSlicer 2.3.1+arm64 on 2021-08-24 at 01:18:46 UTC

; 

; external perimeters extrusion width = 0.45mm
; perimeters extrusion width = 0.45mm
; infill extrusion width = 0.45mm
; solid infill extrusion width = 0.45mm
; top infill extrusion width = 0.40mm
; support material extrusion width = 0.38mm
; first layer extrusion width = 0.42mm

M201 X500 Y500 Z100 E5000 ; sets maximum accelerations, mm/sec^2
M203 X500 Y500 Z10 E60 ; sets maximum feedrates, mm/sec
M204 P500 R1000 T500 ; sets acceleration (P, T) and retract acceleration (R), mm/sec^2
M205 X8.00 Y8.00 Z0.40 E5.00 ; sets the jerk limits, mm/sec
M205 S0 T0 ; sets the minimum extruding and travel feed rate, mm/sec
M107
;TYPE:Custom
G90 ; use absolute coordinates
M83 ; extruder relative mode
M104 S240 ; set extruder temp
M140 S85 ; set bed temp
M190 S85 ; wait for bed temp
M109 S240 ; wait for extruder temp
G28 ; home all
G1 Z2 F240
G1 X2 Y10 F3000
G1 Z0.28 F240
G92 E0.0
G1 Y190 E15.0 F1500.0 ; intro line
G1 X2.3 F5000
G1 Y10 E30 F1200.0 ; intro line
G92 E0.0
G21 ; set units to millimeters
G90 ; use absolute coordinates
M83 ; use relative distances for extrusion
M900 K0.08 ; Filament gcode LA 1.5
M900 K45 ; Filament gcode LA 1.0
;LAYER_CHANGE
;Z:0.2
;HEIGHT:0.2
;BEFORE_LAYER_CHANGE
;0.2


G1 E-1.40000 F2100.000
G1 Z0.200 F9000.000
;AFTER_LAYER_CHANGE
;0.2
G1 Z0.400
G1 X54.428 Y72.401
G1 Z0.200
G1 E1.40000 F2100.000
;TYPE:Skirt
;WIDTH:0.42
G1 F1200.000
G1 X55.137 Y71.066 E0.04740
G1 X56.103 Y69.881 E0.04792
G1 X57.218 Y68.954 E0.04548
G1 X58.047 Y68.459 E0.03027
G1 X59.326 Y67.937 E0.04330
G1 X60.208 Y67.724 E0.02848
G1 X61.563 Y67.596 E0.04266
G1 X158.404 Y67.596 E3.03638
G1 X159.909 Y67.744 E0.04741
G1 X161.352 Y68.180 E0.04728
G1 X162.691 Y68.891 E0.04753
G1 X163.800 Y69.788 E0.04471
G1 X164.772 Y70.935 E0.04714
G1 X165.299 Y71.815 E0.03219
G1 X165.833 Y73.142 E0.04485
G1 X166.125 Y74.700 E0.04970
G1 X166.151 Y137.285 E1.96230
G1 X166.028 Y138.534 E0.03934
G1 X165.850 Y139.294 E0.02450
G1 X165.235 Y140.813 E0.05136
G1 X164.314 Y142.163 E0.05124
G1 X163.418 Y143.059 E0.03971
G1 X162.782 Y143.546 E0.02514
G1 X161.953 Y144.041 E0.03027
G1 X160.674 Y144.563 E0.04330
G1 X159.792 Y144.776 E0.02848
G1 X158.437 Y144.904 E0.04266
G1 X61.547 Y144.904 E3.03792
G1 X60.718 Y144.852 E0.02604
G1 X59.471 Y144.604 E0.03984
G1 X57.948 Y143.990 E0.05149
G1 X56.590 Y143.067 E0.05149
G1 X55.691 Y142.168 E0.03984
G1 X55.204 Y141.532 E0.02514
G1 X54.706 Y140.695 E0.03053
G1 X54.172 Y139.373 E0.04471
G1 X50.708 Y126.126 E0.42932
G1 X50.685 Y107.866 E0.57252
G1 X53.980 Y73.918 E1.06944
G1 X54.411 Y72.459 E0.04770
G1 X54.771 Y72.565 F9000.000
G1 F1200.000
G1 X55.452 Y71.273 E0.04582
G1 X56.374 Y70.143 E0.04570
G1 X57.443 Y69.256 E0.04356
G1 X58.212 Y68.799 E0.02806
G1 X59.442 Y68.296 E0.04165
G1 X60.267 Y68.096 E0.02663
G1 X61.571 Y67.973 E0.04106
G1 X158.404 Y67.973 E3.03613
G1 X159.837 Y68.114 E0.04515
G1 X161.210 Y68.529 E0.04499
G1 X162.484 Y69.206 E0.04522
G1 X163.546 Y70.066 E0.04284
G1 X164.515 Y71.224 E0.04736
G1 X165.168 Y72.420 E0.04272
G1 X165.491 Y73.321 E0.03000
G1 X165.749 Y74.731 E0.04494
G1 X165.775 Y137.260 E1.96057
G1 X165.655 Y138.474 E0.03824
G1 X165.486 Y139.197 E0.02329
G1 X164.904 Y140.632 E0.04855
G1 X164.032 Y141.912 E0.04855
G1 X163.165 Y142.779 E0.03844
G1 X162.557 Y143.244 E0.02401
G1 X161.788 Y143.701 E0.02806
G1 X160.558 Y144.204 E0.04165
G1 X159.733 Y144.404 E0.02663
G1 X158.429 Y144.527 E0.04106
G1 X61.558 Y144.527 E3.03732
G1 X60.770 Y144.479 E0.02477
G1 X59.564 Y144.239 E0.03856
G1 X58.128 Y143.659 E0.04855
G1 X56.841 Y142.785 E0.04878
G1 X55.971 Y141.915 E0.03856
G1 X55.506 Y141.307 E0.02401
G1 X55.045 Y140.531 E0.02830
G1 X54.533 Y139.265 E0.04284
G1 X51.082 Y126.072 E0.42755
G1 X51.062 Y107.879 E0.57043
G1 X54.351 Y73.988 E1.06763
G1 X54.754 Y72.623 E0.04464
;WIPE_START
G1 F7200.000
G1 X55.452 Y71.273 E-0.42119
G1 X56.374 Y70.143 E-0.40385
G1 X57.443 Y69.256 E-0.38493
G1 X57.815 Y69.035 E-0.12002
;WIPE_END
G1 E-0.07000 F2100.000
G1 Z0.400 F9000.000
G1 X63.242 Y125.759
G1 Z0.200
G1 E1.40000 F2100.000
;TYPE:Support material
G1 F1200.000
G1 X63.242 Y107.944 E0.55857
G1 X62.488 Y107.944 E0.02365
G1 X62.488 Y125.589 E0.55325
G1 X61.734 Y125.589 E0.02365
G1 X61.734 Y107.944 E0.55325
G1 X60.980 Y107.944 E0.02365
G1 X60.980 Y125.589 E0.55325
G1 X60.226 Y125.589 E0.02365
G1 X60.226 Y107.944 E0.55325
G1 X60.059 Y107.944 E0.00524
G1 X60.059 Y111.391 E0.10807
G1 X59.790 Y111.659 E0.01191
G1 X59.471 Y111.659 E0.00999
G1 X59.471 Y120.746 E0.28489
G1 X58.717 Y120.746 E0.02365
G1 X58.717 Y111.659 E0.28489
G1 X57.963 Y111.659 E0.02365
G1 X57.963 Y120.746 E0.28489
G1 X57.209 Y120.746 E0.02365
G1 X57.209 Y111.659 E0.28489
G1 X56.455 Y111.659 E0.02365
G1 X56.455 Y120.746 E0.28489
G1 X56.410 Y120.746 E0.00140
G1 X56.141 Y121.014 E0.01191
G1 X56.141 Y125.589 E0.14345
G1 X55.701 Y125.589 E0.01382
G1 X55.701 Y107.944 E0.55325
G1 X54.946 Y107.944 E0.02365
G1 X54.946 Y125.589 E0.55325
G1 X54.192 Y125.589 E0.02365
G1 X54.192 Y107.944 E0.55325
G1 X53.438 Y107.944 E0.02365
G1 X53.438 Y125.759 E0.55857
;WIPE_START
G1 F7200.000
G1 X53.438 Y120.959 E-1.33000
;WIPE_END
G1 E-0.07000 F2100.000
G1 Z0.400 F9000.000
G1 X59.013 Y130.588
G1 Z0.200
G1 E1.40000 F2100.000
;TYPE:Perimeter
G1 F1200.000
G1 X61.013 Y130.588 E0.06271
G1 X61.013 Y133.414 E0.08860
G1 X59.013 Y133.414 E0.06271
G1 X59.013 Y139.737 E0.19826
G1 X113.179 Y139.737 E1.69835
G1 X113.179 Y137.737 E0.06271
G1 X153.251 Y137.737 E1.25644
G1 X153.251 Y139.737 E0.06271
G1 X160.987 Y139.737 E0.24254
G1 X160.987 Y102.163 E1.17812
G1 X157.587 Y102.163 E0.10660
G1 X157.587 Y92.837 E0.29240
G1 X160.987 Y92.837 E0.10660
G1 X160.987 Y72.763 E0.62941
G1 X152.828 Y72.763 E0.25583
G1 X152.828 Y74.166 E0.04399
G1 X64.630 Y74.166 E2.76540
G1 X64.630 Y72.763 E0.04399
G1 X59.013 Y72.763 E0.17610
G1 X59.013 Y79.393 E0.20788
G1 X62.511 Y79.393 E0.10967
G1 X62.511 Y82.119 E0.08545
G1 X59.013 Y82.119 E0.10967
G1 X59.013 Y94.992 E0.40363
G1 X63.260 Y94.992 E0.13317
G1 X63.260 Y100.117 E0.16070
G1 X59.013 Y100.117 E0.13317
G1 X59.013 Y110.614 E0.32912
G1 X57.187 Y110.614 E0.05725
G1 X57.187 Y75.364 E1.10522
G1 X57.209 Y74.918 E0.01403
G1 X57.273 Y74.489 E0.01358
G1 X57.378 Y74.069 E0.01358
G1 X57.524 Y73.662 E0.01358
G1 X57.709 Y73.271 E0.01356
G1 X57.936 Y72.892 E0.01385
G1 X58.189 Y72.551 E0.01331
G1 X58.480 Y72.230 E0.01358
G1 X58.801 Y71.939 E0.01358
G1 X59.149 Y71.681 E0.01358
G1 X59.520 Y71.459 E0.01358
G1 X59.912 Y71.274 E0.01358
G1 X60.319 Y71.128 E0.01358
G1 X60.739 Y71.023 E0.01358
G1 X61.168 Y70.959 E0.01358
G1 X61.614 Y70.937 E0.01403
G1 X158.394 Y70.938 E3.03447
G1 X158.832 Y70.959 E0.01375
G1 X159.261 Y71.023 E0.01358
G1 X159.681 Y71.128 E0.01358
G1 X160.088 Y71.274 E0.01358
G1 X160.480 Y71.459 E0.01358
G1 X160.851 Y71.681 E0.01358
G1 X161.199 Y71.939 E0.01358
G1 X161.520 Y72.230 E0.01358
G1 X161.811 Y72.551 E0.01358
G1 X162.069 Y72.899 E0.01358
G1 X162.291 Y73.270 E0.01358
G1 X162.476 Y73.662 E0.01358
G1 X162.622 Y74.069 E0.01358
G1 X162.727 Y74.489 E0.01358
G1 X162.791 Y74.918 E0.01358
G1 X162.813 Y75.364 E0.01403
G1 X162.813 Y137.135 E1.93678
G1 X162.790 Y137.591 E0.01431
G1 X162.727 Y138.011 E0.01331
G1 X162.622 Y138.431 E0.01358
G1 X162.476 Y138.838 E0.01358
G1 X162.291 Y139.229 E0.01356
G1 X162.064 Y139.608 E0.01385
G1 X161.811 Y139.949 E0.01331
G1 X161.520 Y140.270 E0.01358
G1 X161.199 Y140.561 E0.01358
G1 X160.851 Y140.819 E0.01358
G1 X160.480 Y141.041 E0.01358
G1 X160.088 Y141.226 E0.01358
G1 X159.681 Y141.372 E0.01358
G1 X159.261 Y141.477 E0.01358
G1 X158.832 Y141.541 E0.01358
G1 X158.386 Y141.563 E0.01403
G1 X61.615 Y141.563 E3.03418
G1 X61.159 Y141.540 E0.01431
G1 X60.739 Y141.477 E0.01331
G1 X60.319 Y141.372 E0.01358
G1 X59.912 Y141.226 E0.01358
G1 X59.521 Y141.041 E0.01356
G1 X59.142 Y140.814 E0.01385
G1 X58.801 Y140.561 E0.01331
G1 X58.480 Y140.270 E0.01358
G1 X58.189 Y139.949 E0.01358
G1 X57.931 Y139.601 E0.01358
G1 X57.709 Y139.230 E0.01358
G1 X57.524 Y138.838 E0.01358
G1 X57.378 Y138.431 E0.01358
G1 X57.273 Y138.011 E0.01358
G1 X57.209 Y137.582 E0.01358
G1 X57.187 Y137.136 E0.01403
G1 X57.187 Y121.791 E0.48111
G1 X59.013 Y121.791 E0.05725
G1 X59.013 Y130.528 E0.27394
G1 X59.390 Y130.211 F9000.000
;TYPE:External perimeter
G1 F1200.000
G1 X61.390 Y130.211 E0.06271
G1 X61.390 Y133.791 E0.11225
G1 X59.390 Y133.791 E0.06271
G1 X59.390 Y139.360 E0.17461
G1 X112.802 Y139.360 E1.67470
G1 X112.802 Y137.360 E0.06271
G1 X153.629 Y137.360 E1.28008
G1 X153.629 Y139.360 E0.06271
G1 X160.610 Y139.360 E0.21890
G1 X160.610 Y102.540 E1.15447
G1 X157.210 Y102.540 E0.10660
G1 X157.210 Y92.460 E0.31605
G1 X160.610 Y92.460 E0.10660
G1 X160.610 Y73.140 E0.60577
G1 X153.205 Y73.140 E0.23218
G1 X153.205 Y74.543 E0.04399
G1 X64.252 Y74.543 E2.78904
G1 X64.252 Y73.140 E0.04399
G1 X59.390 Y73.140 E0.15246
G1 X59.390 Y79.016 E0.18424
G1 X62.888 Y79.016 E0.10967
G1 X62.888 Y82.496 E0.10910
G1 X59.390 Y82.496 E0.10967
G1 X59.390 Y94.615 E0.37998
G1 X63.637 Y94.615 E0.13317
G1 X63.637 Y100.494 E0.18434
G1 X59.390 Y100.494 E0.13317
G1 X59.390 Y110.991 E0.32912
G1 X56.810 Y110.991 E0.08089
G1 X56.810 Y75.355 E1.11734
G1 X56.833 Y74.881 E0.01490
G1 X56.902 Y74.416 E0.01474
G1 X57.016 Y73.960 E0.01474
G1 X57.175 Y73.517 E0.01474
G1 X57.376 Y73.092 E0.01473
G1 X57.623 Y72.682 E0.01502
G1 X57.897 Y72.311 E0.01446
G1 X58.213 Y71.963 E0.01474
G1 X58.561 Y71.647 E0.01474
G1 X58.939 Y71.367 E0.01474
G1 X59.342 Y71.126 E0.01474
G1 X59.767 Y70.925 E0.01474
G1 X60.210 Y70.766 E0.01474
G1 X60.666 Y70.652 E0.01474
G1 X61.131 Y70.583 E0.01474
G1 X61.605 Y70.560 E0.01490
G1 X158.404 Y70.560 E3.03505
G1 X158.869 Y70.583 E0.01462
G1 X159.334 Y70.652 E0.01474
G1 X159.790 Y70.766 E0.01474
G1 X160.233 Y70.925 E0.01474
G1 X160.658 Y71.126 E0.01474
G1 X161.061 Y71.367 E0.01474
G1 X161.439 Y71.647 E0.01474
G1 X161.787 Y71.963 E0.01474
G1 X162.103 Y72.311 E0.01474
G1 X162.383 Y72.689 E0.01474
G1 X162.624 Y73.092 E0.01474
G1 X162.825 Y73.517 E0.01474
G1 X162.984 Y73.960 E0.01474
G1 X163.098 Y74.416 E0.01474
G1 X163.167 Y74.881 E0.01474
G1 X163.190 Y75.355 E0.01490
G1 X163.190 Y137.145 E1.93737
G1 X163.165 Y137.628 E0.01518
G1 X163.098 Y138.084 E0.01446
G1 X162.984 Y138.540 E0.01474
G1 X162.825 Y138.983 E0.01474
G1 X162.624 Y139.408 E0.01473
G1 X162.377 Y139.818 E0.01502
G1 X162.103 Y140.189 E0.01446
G1 X161.787 Y140.537 E0.01474
G1 X161.439 Y140.853 E0.01474
G1 X161.061 Y141.133 E0.01474
G1 X160.658 Y141.374 E0.01474
G1 X160.233 Y141.575 E0.01474
G1 X159.790 Y141.734 E0.01474
G1 X159.334 Y141.848 E0.01474
G1 X158.869 Y141.917 E0.01474
G1 X158.395 Y141.940 E0.01490
G1 X61.605 Y141.940 E3.03477
G1 X61.122 Y141.915 E0.01518
G1 X60.666 Y141.848 E0.01446
G1 X60.210 Y141.734 E0.01474
G1 X59.767 Y141.575 E0.01474
G1 X59.342 Y141.374 E0.01473
G1 X58.932 Y141.127 E0.01502
G1 X58.561 Y140.853 E0.01446
G1 X58.213 Y140.537 E0.01474
G1 X57.897 Y140.189 E0.01474
G1 X57.617 Y139.811 E0.01474
G1 X57.376 Y139.408 E0.01474
G1 X57.175 Y138.983 E0.01474
G1 X57.016 Y138.540 E0.01474
G1 X56.902 Y138.084 E0.01474
G1 X56.833 Y137.619 E0.01474
G1 X56.810 Y137.145 E0.01490
G1 X56.810 Y121.414 E0.49322
G1 X59.390 Y121.414 E0.08089
G1 X59.390 Y130.151 E0.27394
G1 X59.428 Y130.609 F9000.000
G1 X58.900 Y130.681
;TYPE:Solid infill
;WIDTH:0.420366
G1 F1200.000
G1 X57.470 Y129.251 E0.06347
G1 X57.470 Y128.717 E0.01675
G1 X58.730 Y129.978 E0.05594
G1 X58.730 Y129.444 E0.01675
G1 X57.470 Y128.183 E0.05594
G1 X57.470 Y127.650 E0.01675
G1 X58.730 Y128.910 E0.05594
G1 X58.730 Y128.376 E0.01675
G1 X57.470 Y127.116 E0.05594
G1 X57.470 Y126.582 E0.01675
G1 X58.730 Y127.842 E0.05594
G1 X58.730 Y127.309 E0.01675
G1 X57.470 Y126.048 E0.05594
G1 X57.470 Y125.515 E0.01675
G1 X58.730 Y126.775 E0.05594
G1 X58.730 Y126.241 E0.01675
G1 X57.470 Y124.981 E0.05594
G1 X57.470 Y124.447 E0.01675
G1 X58.730 Y125.707 E0.05594
G1 X58.730 Y125.173 E0.01675
G1 X57.470 Y123.913 E0.05594
G1 X57.470 Y123.379 E0.01675
G1 X58.730 Y124.640 E0.05594
G1 X58.730 Y124.106 E0.01675
G1 X57.470 Y122.846 E0.05594
G1 X57.470 Y122.312 E0.01675
G1 X58.730 Y123.572 E0.05594
G1 X58.730 Y123.038 E0.01675
G1 X57.766 Y122.074 E0.04279
G1 X58.300 Y122.074 E0.01675
G1 X58.900 Y122.674 E0.02663
;WIPE_START
G1 F7200.000
G1 X58.300 Y122.074 E-0.23512
G1 X57.766 Y122.074 E-0.14790
G1 X58.730 Y123.038 E-0.37780
G1 X58.730 Y123.572 E-0.14790
G1 X57.655 Y122.497 E-0.42127
;WIPE_END
G1 E-0.07000 F2100.000
G1 Z0.400 F9000.000
G1 X60.900 Y131.080
G1 Z0.200
G1 E1.40000 F2100.000
G1 F1200.000
G1 X60.691 Y130.871 E0.00926
G1 X60.157 Y130.871 E0.01675
G1 X60.730 Y131.444 E0.02542
G1 X60.730 Y131.978 E0.01675
G1 X59.624 Y130.871 E0.04911
G1 X59.090 Y130.871 E0.01675
G1 X60.730 Y132.511 E0.07281
G1 X60.730 Y133.045 E0.01675
G1 X57.470 Y129.785 E0.14471
G1 X57.470 Y130.319 E0.01675
G1 X60.282 Y133.131 E0.12484
G1 X59.749 Y133.131 E0.01675
G1 X57.470 Y130.852 E0.10114
G1 X57.470 Y131.386 E0.01675
G1 X59.215 Y133.131 E0.07745
G1 X58.730 Y133.131 E0.01521
G1 X58.730 Y133.180 E0.00154
G1 X57.470 Y131.920 E0.05594
G1 X57.470 Y132.454 E0.01675
G1 X58.730 Y133.714 E0.05594
G1 X58.730 Y134.248 E0.01675
G1 X57.470 Y132.988 E0.05594
G1 X57.470 Y133.521 E0.01675
G1 X58.730 Y134.782 E0.05594
G1 X58.730 Y135.315 E0.01675
G1 X57.470 Y134.055 E0.05594
G1 X57.470 Y134.589 E0.01675
G1 X58.730 Y135.849 E0.05594
G1 X58.730 Y136.383 E0.01675
G1 X57.470 Y135.123 E0.05594
G1 X57.470 Y135.657 E0.01675
G1 X58.730 Y136.917 E0.05594
G1 X58.730 Y137.451 E0.01675
G1 X57.470 Y136.190 E0.05594
G1 X57.470 Y136.724 E0.01675
G1 X58.730 Y137.984 E0.05594
G1 X58.730 Y138.518 E0.01675
G1 X57.477 Y137.265 E0.05564
G1 X57.491 Y137.555 E0.00912
G1 X57.536 Y137.858 E0.00961
G1 X58.730 Y139.052 E0.05301
G1 X58.730 Y139.586 E0.01675
G1 X57.735 Y138.591 E0.04415
G1 X57.958 Y139.096 E0.01734
G1 X58.167 Y139.444 E0.01272
G1 X58.408 Y139.769 E0.01272
G1 X58.680 Y140.070 E0.01271
G1 X58.981 Y140.342 E0.01272
G1 X59.299 Y140.578 E0.01246
G1 X59.654 Y140.792 E0.01300
G1 X60.159 Y141.015 E0.01731
G1 X59.164 Y140.020 E0.04415
G1 X59.698 Y140.020 E0.01675
G1 X60.892 Y141.214 E0.05301
G1 X61.187 Y141.258 E0.00935
G1 X61.485 Y141.273 E0.00936
G1 X60.232 Y140.020 E0.05563
G1 X60.766 Y140.020 E0.01675
G1 X62.026 Y141.280 E0.05594
G1 X62.560 Y141.280 E0.01675
G1 X61.299 Y140.020 E0.05594
G1 X61.833 Y140.020 E0.01675
G1 X63.093 Y141.280 E0.05594
G1 X63.627 Y141.280 E0.01675
G1 X62.367 Y140.020 E0.05594
G1 X62.901 Y140.020 E0.01675
G1 X64.161 Y141.280 E0.05594
G1 X64.695 Y141.280 E0.01675
G1 X63.435 Y140.020 E0.05594
G1 X63.968 Y140.020 E0.01675
G1 X65.229 Y141.280 E0.05594
G1 X65.762 Y141.280 E0.01675
G1 X64.502 Y140.020 E0.05594
G1 X65.036 Y140.020 E0.01675
G1 X66.296 Y141.280 E0.05594
G1 X66.830 Y141.280 E0.01675
G1 X65.570 Y140.020 E0.05594
G1 X66.104 Y140.020 E0.01675
G1 X67.364 Y141.280 E0.05594
G1 X67.898 Y141.280 E0.01675
G1 X66.637 Y140.020 E0.05594
G1 X67.171 Y140.020 E0.01675
G1 X68.431 Y141.280 E0.05594
G1 X68.965 Y141.280 E0.01675
G1 X67.705 Y140.020 E0.05594
G1 X68.239 Y140.020 E0.01675
G1 X69.499 Y141.280 E0.05594
G1 X70.033 Y141.280 E0.01675
G1 X68.772 Y140.020 E0.05594
G1 X69.306 Y140.020 E0.01675
G1 X70.567 Y141.280 E0.05594
G1 X71.100 Y141.280 E0.01675
G1 X69.840 Y140.020 E0.05594
G1 X70.374 Y140.020 E0.01675
G1 X71.634 Y141.280 E0.05594
G1 X72.168 Y141.280 E0.01675
G1 X70.908 Y140.020 E0.05594
G1 X71.441 Y140.020 E0.01675
G1 X72.702 Y141.280 E0.05594
G1 X73.235 Y141.280 E0.01675
G1 X71.975 Y140.020 E0.05594
G1 X72.509 Y140.020 E0.01675
G1 X73.769 Y141.280 E0.05594
G1 X74.303 Y141.280 E0.01675
G1 X73.043 Y140.020 E0.05594
G1 X73.577 Y140.020 E0.01675
G1 X74.837 Y141.280 E0.05594
G1 X75.371 Y141.280 E0.01675
G1 X74.110 Y140.020 E0.05594
G1 X74.644 Y140.020 E0.01675
G1 X75.904 Y141.280 E0.05594
G1 X76.438 Y141.280 E0.01675
G1 X75.178 Y140.020 E0.05594
G1 X75.712 Y140.020 E0.01675
G1 X76.972 Y141.280 E0.05594
G1 X77.506 Y141.280 E0.01675
G1 X76.246 Y140.020 E0.05594
G1 X76.779 Y140.020 E0.01675
G1 X78.040 Y141.280 E0.05594
G1 X78.573 Y141.280 E0.01675
G1 X77.313 Y140.020 E0.05594
G1 X77.847 Y140.020 E0.01675
G1 X79.107 Y141.280 E0.05594
G1 X79.641 Y141.280 E0.01675
