; generated by PrusaSlicer 2.3.1+arm64 on 2021-08-22 at 20:48:39 UTC

; 

; external perimeters extrusion width = 0.45mm
; perimeters extrusion width = 0.45mm
; infill extrusion width = 0.45mm
; solid infill extrusion width = 0.45mm
; top infill extrusion width = 0.40mm
; first layer extrusion width = 0.42mm

M201 X500 Y500 Z100 E5000 ; sets maximum accelerations, mm/sec^2
M203 X500 Y500 Z10 E60 ; sets maximum feedrates, mm/sec
M204 P500 R1000 T500 ; sets acceleration (P, T) and retract acceleration (R), mm/sec^2
M205 X8.00 Y8.00 Z0.40 E5.00 ; sets the jerk limits, mm/sec
M205 S0 T0 ; sets the minimum extruding and travel feed rate, mm/sec
M107
;TYPE:Custom
G90 ; use absolute coordinates
M83 ; extruder relative mode
M104 S240 ; set extruder temp
M140 S85 ; set bed temp
M190 S85 ; wait for bed temp
M109 S240 ; wait for extruder temp
G28 ; home all
G1 Z2 F240
G1 X2 Y10 F3000
G1 Z0.28 F240
G92 E0.0
G1 Y190 E15.0 F1500.0 ; intro line
G1 X2.3 F5000
G1 Y10 E30 F1200.0 ; intro line
G92 E0.0
G21 ; set units to millimeters
G90 ; use absolute coordinates
M83 ; use relative distances for extrusion
M900 K0.08 ; Filament gcode LA 1.5
M900 K45 ; Filament gcode LA 1.0
;LAYER_CHANGE
;Z:0.2
;HEIGHT:0.2
;BEFORE_LAYER_CHANGE
;0.2


G1 E-1.40000 F2100.000
G1 Z0.200 F9000.000
;AFTER_LAYER_CHANGE
;0.2
G1 Z0.400
G1 X54.760 Y75.448
G1 Z0.200
G1 E1.40000 F2100.000
;TYPE:Skirt
;WIDTH:0.42
G1 F1200.000
G1 X55.683 Y74.090 E0.05149
G1 X56.582 Y73.191 E0.03984
G1 X57.218 Y72.704 E0.02514
G1 X58.047 Y72.209 E0.03027
G1 X59.326 Y71.687 E0.04330
G1 X60.208 Y71.474 E0.02848
G1 X61.563 Y71.346 E0.04266
G1 X158.404 Y71.346 E3.03638
G1 X159.909 Y71.494 E0.04741
G1 X161.352 Y71.930 E0.04728
G1 X162.691 Y72.641 E0.04753
G1 X163.800 Y73.538 E0.04471
G1 X164.772 Y74.685 E0.04714
G1 X165.299 Y75.565 E0.03219
G1 X165.833 Y76.892 E0.04485
G1 X166.125 Y78.450 E0.04970
G1 X166.151 Y141.035 E1.96230
G1 X166.028 Y142.284 E0.03934
G1 X165.850 Y143.044 E0.02450
G1 X165.235 Y144.563 E0.05136
G1 X164.314 Y145.913 E0.05124
G1 X163.418 Y146.809 E0.03971
G1 X162.782 Y147.296 E0.02514
G1 X161.953 Y147.791 E0.03027
G1 X160.674 Y148.313 E0.04330
G1 X159.792 Y148.526 E0.02848
G1 X158.437 Y148.654 E0.04266
G1 X61.547 Y148.654 E3.03792
G1 X60.718 Y148.602 E0.02604
G1 X59.471 Y148.354 E0.03984
G1 X57.948 Y147.740 E0.05149
G1 X56.590 Y146.817 E0.05149
G1 X55.691 Y145.918 E0.03984
G1 X55.204 Y145.282 E0.02514
G1 X54.709 Y144.453 E0.03027
G1 X54.187 Y143.174 E0.04330
G1 X53.974 Y142.296 E0.02835
G1 X53.846 Y140.957 E0.04215
G1 X53.847 Y79.022 E1.94193
G1 X53.899 Y78.214 E0.02540
G1 X54.147 Y76.967 E0.03984
G1 X54.737 Y75.504 E0.04948
G1 X55.085 Y75.644 F9000.000
G1 F1200.000
G1 X55.965 Y74.341 E0.04932
G1 X56.835 Y73.471 E0.03856
G1 X57.443 Y73.006 E0.02401
G1 X58.212 Y72.549 E0.02806
G1 X59.442 Y72.046 E0.04165
G1 X60.267 Y71.846 E0.02663
G1 X61.571 Y71.723 E0.04106
G1 X158.404 Y71.723 E3.03613
G1 X159.837 Y71.864 E0.04515
G1 X161.210 Y72.279 E0.04499
G1 X162.484 Y72.956 E0.04522
G1 X163.546 Y73.816 E0.04284
G1 X164.515 Y74.974 E0.04736
G1 X165.168 Y76.170 E0.04272
G1 X165.489 Y77.066 E0.02984
G1 X165.749 Y78.481 E0.04510
G1 X165.775 Y141.010 E1.96057
G1 X165.655 Y142.224 E0.03824
G1 X165.486 Y142.947 E0.02329
G1 X164.904 Y144.382 E0.04855
G1 X164.032 Y145.662 E0.04855
G1 X163.165 Y146.529 E0.03844
G1 X162.557 Y146.994 E0.02401
G1 X161.788 Y147.451 E0.02806
G1 X160.558 Y147.954 E0.04165
G1 X159.733 Y148.154 E0.02663
G1 X158.429 Y148.277 E0.04106
G1 X61.558 Y148.277 E3.03732
G1 X60.770 Y148.229 E0.02477
G1 X59.567 Y147.990 E0.03844
G1 X58.128 Y147.409 E0.04866
G1 X56.841 Y146.535 E0.04878
G1 X55.971 Y145.665 E0.03856
G1 X55.506 Y145.057 E0.02401
G1 X55.049 Y144.288 E0.02806
G1 X54.546 Y143.058 E0.04165
G1 X54.346 Y142.233 E0.02663
G1 X54.223 Y140.944 E0.04058
G1 X54.224 Y79.035 E1.94111
G1 X54.272 Y78.266 E0.02417
G1 X54.511 Y77.064 E0.03844
G1 X55.062 Y75.700 E0.04611
;WIPE_START
G1 F7200.000
G1 X55.965 Y74.341 E-0.45212
G1 X56.835 Y73.471 E-0.34073
G1 X57.443 Y73.006 E-0.21215
G1 X58.212 Y72.549 E-0.24798
G1 X58.469 Y72.443 E-0.07702
;WIPE_END
G1 E-0.07000 F2100.000
G1 Z0.400 F9000.000
G1 X61.581 Y138.789
G1 Z0.200
G1 E1.40000 F2100.000
;TYPE:Perimeter
G1 F1200.000
G1 X61.893 Y138.761 E0.00984
G1 X62.218 Y138.788 E0.01022
G1 X62.529 Y138.872 E0.01009
G1 X62.820 Y139.007 E0.01005
G1 X63.082 Y139.191 E0.01005
G1 X63.309 Y139.418 E0.01005
G1 X63.493 Y139.680 E0.01005
G1 X63.626 Y139.965 E0.00984
G1 X63.711 Y140.279 E0.01022
G1 X63.739 Y140.600 E0.01009
G1 X63.711 Y140.919 E0.01005
G1 X63.628 Y141.229 E0.01005
G1 X63.493 Y141.520 E0.01005
G1 X63.309 Y141.782 E0.01005
G1 X63.082 Y142.009 E0.01005
G1 X62.820 Y142.193 E0.01005
G1 X62.529 Y142.328 E0.01005
G1 X62.219 Y142.411 E0.01005
G1 X61.900 Y142.439 E0.01005
G1 X61.581 Y142.411 E0.01005
G1 X61.271 Y142.328 E0.01005
G1 X60.980 Y142.193 E0.01005
G1 X60.718 Y142.009 E0.01005
G1 X60.491 Y141.782 E0.01005
G1 X60.307 Y141.520 E0.01005
G1 X60.172 Y141.229 E0.01005
G1 X60.089 Y140.919 E0.01005
G1 X60.061 Y140.600 E0.01005
G1 X60.089 Y140.281 E0.01005
G1 X60.172 Y139.971 E0.01005
G1 X60.307 Y139.680 E0.01005
G1 X60.491 Y139.418 E0.01005
G1 X60.718 Y139.191 E0.01005
G1 X60.980 Y139.007 E0.01005
G1 X61.271 Y138.872 E0.01005
G1 X61.523 Y138.804 E0.00817
G1 X61.620 Y139.168 F9000.000
;TYPE:External perimeter
G1 F1200.000
G1 X61.894 Y139.140 E0.00863
G1 X62.153 Y139.161 E0.00815
G1 X62.400 Y139.227 E0.00800
G1 X62.630 Y139.335 E0.00798
G1 X62.839 Y139.481 E0.00798
G1 X63.019 Y139.661 E0.00798
G1 X63.165 Y139.870 E0.00798
G1 X63.270 Y140.095 E0.00780
G1 X63.339 Y140.346 E0.00815
G1 X63.361 Y140.600 E0.00800
G1 X63.339 Y140.854 E0.00798
G1 X63.273 Y141.100 E0.00798
G1 X63.165 Y141.330 E0.00798
G1 X63.019 Y141.539 E0.00798
G1 X62.839 Y141.719 E0.00798
G1 X62.630 Y141.865 E0.00798
G1 X62.400 Y141.973 E0.00798
G1 X62.154 Y142.039 E0.00798
G1 X61.900 Y142.061 E0.00798
G1 X61.646 Y142.039 E0.00798
G1 X61.400 Y141.973 E0.00798
G1 X61.170 Y141.865 E0.00798
G1 X60.961 Y141.719 E0.00798
G1 X60.781 Y141.539 E0.00798
G1 X60.635 Y141.330 E0.00798
G1 X60.527 Y141.100 E0.00798
G1 X60.461 Y140.854 E0.00798
G1 X60.439 Y140.600 E0.00798
G1 X60.461 Y140.346 E0.00798
G1 X60.527 Y140.100 E0.00798
G1 X60.635 Y139.870 E0.00798
G1 X60.781 Y139.661 E0.00798
G1 X60.961 Y139.481 E0.00798
G1 X61.170 Y139.335 E0.00798
G1 X61.400 Y139.227 E0.00798
G1 X61.562 Y139.184 E0.00526
G1 X61.711 Y138.908 F9000.000
;WIPE_START
G1 F7200.000
G1 X61.894 Y139.140 E-0.09276
G1 X62.153 Y139.161 E-0.07204
G1 X62.400 Y139.227 E-0.07068
G1 X62.630 Y139.335 E-0.07055
G1 X62.839 Y139.481 E-0.07056
G1 X63.019 Y139.661 E-0.07055
G1 X63.165 Y139.870 E-0.07055
G1 X63.270 Y140.095 E-0.06892
G1 X63.339 Y140.346 E-0.07204
G1 X63.361 Y140.600 E-0.07068
G1 X63.339 Y140.854 E-0.07056
G1 X63.273 Y141.100 E-0.07056
G1 X63.165 Y141.330 E-0.07055
G1 X63.019 Y141.539 E-0.07055
G1 X62.839 Y141.719 E-0.07055
G1 X62.630 Y141.865 E-0.07056
G1 X62.400 Y141.973 E-0.07055
G1 X62.154 Y142.039 E-0.07056
G1 X62.023 Y142.050 E-0.03622
;WIPE_END
G1 E-0.07000 F2100.000
G1 Z0.400 F9000.000
G1 X61.900 Y81.039
G1 Z0.200
G1 E1.40000 F2100.000
;TYPE:Perimeter
G1 F1200.000
G1 X61.581 Y81.011 E0.01005
G1 X61.271 Y80.928 E0.01005
G1 X60.980 Y80.793 E0.01005
G1 X60.718 Y80.609 E0.01005
G1 X60.491 Y80.382 E0.01005
G1 X60.307 Y80.120 E0.01005
G1 X60.172 Y79.829 E0.01005
G1 X60.089 Y79.519 E0.01005
G1 X60.061 Y79.200 E0.01005
G1 X60.089 Y78.881 E0.01005
G1 X60.172 Y78.571 E0.01005
G1 X60.307 Y78.280 E0.01005
G1 X60.491 Y78.018 E0.01005
G1 X60.718 Y77.791 E0.01005
G1 X60.980 Y77.607 E0.01005
G1 X61.271 Y77.472 E0.01005
G1 X61.581 Y77.389 E0.01005
G1 X61.893 Y77.361 E0.00984
G1 X62.218 Y77.388 E0.01022
G1 X62.529 Y77.472 E0.01009
G1 X62.820 Y77.607 E0.01005
G1 X63.082 Y77.791 E0.01005
G1 X63.309 Y78.018 E0.01005
G1 X63.493 Y78.280 E0.01005
G1 X63.626 Y78.565 E0.00984
G1 X63.711 Y78.879 E0.01022
G1 X63.739 Y79.200 E0.01009
G1 X63.711 Y79.519 E0.01005
G1 X63.628 Y79.829 E0.01005
G1 X63.493 Y80.120 E0.01005
G1 X63.309 Y80.382 E0.01005
G1 X63.082 Y80.609 E0.01005
G1 X62.820 Y80.793 E0.01005
G1 X62.529 Y80.928 E0.01005
G1 X62.219 Y81.011 E0.01005
G1 X61.960 Y81.034 E0.00817
G1 X61.927 Y80.658 F9000.000
;TYPE:External perimeter
G1 F1200.000
G1 X61.646 Y80.639 E0.00882
G1 X61.400 Y80.573 E0.00798
G1 X61.170 Y80.465 E0.00798
G1 X60.961 Y80.319 E0.00798
G1 X60.781 Y80.139 E0.00798
G1 X60.635 Y79.930 E0.00798
G1 X60.527 Y79.700 E0.00798
G1 X60.461 Y79.454 E0.00798
G1 X60.439 Y79.200 E0.00798
G1 X60.461 Y78.946 E0.00798
G1 X60.527 Y78.700 E0.00798
G1 X60.635 Y78.470 E0.00798
G1 X60.781 Y78.261 E0.00798
G1 X60.961 Y78.081 E0.00798
G1 X61.170 Y77.935 E0.00798
G1 X61.400 Y77.827 E0.00798
G1 X61.646 Y77.761 E0.00798
G1 X61.894 Y77.740 E0.00780
G1 X62.153 Y77.761 E0.00815
G1 X62.400 Y77.827 E0.00800
G1 X62.630 Y77.935 E0.00798
G1 X62.839 Y78.081 E0.00798
G1 X63.019 Y78.261 E0.00798
G1 X63.165 Y78.470 E0.00798
G1 X63.270 Y78.695 E0.00780
G1 X63.339 Y78.946 E0.00815
G1 X63.361 Y79.200 E0.00800
G1 X63.339 Y79.454 E0.00798
G1 X63.273 Y79.700 E0.00798
G1 X63.165 Y79.930 E0.00798
G1 X63.019 Y80.139 E0.00798
G1 X62.839 Y80.319 E0.00798
G1 X62.630 Y80.465 E0.00798
G1 X62.400 Y80.573 E0.00798
G1 X62.154 Y80.639 E0.00798
G1 X61.987 Y80.653 E0.00526
G1 X61.789 Y80.904 F9000.000
;WIPE_START
G1 F7200.000
G1 X61.646 Y80.639 E-0.09439
G1 X61.400 Y80.573 E-0.07055
G1 X61.170 Y80.465 E-0.07056
G1 X60.961 Y80.319 E-0.07056
G1 X60.781 Y80.139 E-0.07056
G1 X60.635 Y79.930 E-0.07055
G1 X60.527 Y79.700 E-0.07055
G1 X60.461 Y79.454 E-0.07056
G1 X60.439 Y79.200 E-0.07055
G1 X60.461 Y78.946 E-0.07055
G1 X60.527 Y78.700 E-0.07055
G1 X60.635 Y78.470 E-0.07056
G1 X60.781 Y78.261 E-0.07055
G1 X60.961 Y78.081 E-0.07056
G1 X61.170 Y77.935 E-0.07055
G1 X61.400 Y77.827 E-0.07056
G1 X61.646 Y77.761 E-0.07055
G1 X61.894 Y77.740 E-0.06892
G1 X62.030 Y77.751 E-0.03781
;WIPE_END
G1 E-0.07000 F2100.000
G1 Z0.400 F9000.000
G1 X156.061 Y79.200
G1 Z0.200
G1 E1.40000 F2100.000
;TYPE:Perimeter
G1 F1200.000
G1 X156.089 Y78.881 E0.01005
G1 X156.172 Y78.571 E0.01005
G1 X156.307 Y78.280 E0.01005
G1 X156.491 Y78.018 E0.01005
G1 X156.718 Y77.791 E0.01005
G1 X156.980 Y77.607 E0.01005
G1 X157.271 Y77.472 E0.01005
G1 X157.581 Y77.389 E0.01005
G1 X157.893 Y77.361 E0.00984
G1 X158.218 Y77.388 E0.01022
G1 X158.529 Y77.472 E0.01009
G1 X158.820 Y77.607 E0.01005
G1 X159.082 Y77.791 E0.01005
G1 X159.309 Y78.018 E0.01005
G1 X159.493 Y78.280 E0.01005
G1 X159.626 Y78.565 E0.00984
G1 X159.711 Y78.879 E0.01022
G1 X159.739 Y79.200 E0.01009
G1 X159.711 Y79.519 E0.01005
G1 X159.628 Y79.829 E0.01005
G1 X159.493 Y80.120 E0.01005
G1 X159.309 Y80.382 E0.01005
G1 X159.082 Y80.609 E0.01005
G1 X158.820 Y80.793 E0.01005
G1 X158.529 Y80.928 E0.01005
G1 X158.219 Y81.011 E0.01005
G1 X157.900 Y81.039 E0.01005
G1 X157.581 Y81.011 E0.01005
G1 X157.271 Y80.928 E0.01005
G1 X156.980 Y80.793 E0.01005
G1 X156.718 Y80.609 E0.01005
G1 X156.491 Y80.382 E0.01005
G1 X156.307 Y80.120 E0.01005
G1 X156.172 Y79.829 E0.01005
G1 X156.089 Y79.519 E0.01005
G1 X156.066 Y79.260 E0.00817
G1 X156.442 Y79.227 F9000.000
;TYPE:External perimeter
G1 F1200.000
G1 X156.461 Y78.946 E0.00882
G1 X156.527 Y78.700 E0.00798
G1 X156.635 Y78.470 E0.00798
G1 X156.781 Y78.261 E0.00798
G1 X156.961 Y78.081 E0.00798
G1 X157.170 Y77.935 E0.00798
G1 X157.400 Y77.827 E0.00798
G1 X157.646 Y77.761 E0.00798
G1 X157.894 Y77.740 E0.00780
G1 X158.153 Y77.761 E0.00815
G1 X158.400 Y77.827 E0.00800
G1 X158.630 Y77.935 E0.00798
G1 X158.839 Y78.081 E0.00798
G1 X159.019 Y78.261 E0.00798
G1 X159.165 Y78.470 E0.00798
G1 X159.270 Y78.695 E0.00780
G1 X159.339 Y78.946 E0.00815
G1 X159.361 Y79.200 E0.00800
G1 X159.339 Y79.454 E0.00798
G1 X159.273 Y79.700 E0.00798
G1 X159.165 Y79.930 E0.00798
G1 X159.019 Y80.139 E0.00798
G1 X158.839 Y80.319 E0.00798
G1 X158.630 Y80.465 E0.00798
G1 X158.400 Y80.573 E0.00798
G1 X158.154 Y80.639 E0.00798
G1 X157.900 Y80.661 E0.00798
G1 X157.646 Y80.639 E0.00798
G1 X157.400 Y80.573 E0.00798
G1 X157.170 Y80.465 E0.00798
G1 X156.961 Y80.319 E0.00798
G1 X156.781 Y80.139 E0.00798
G1 X156.635 Y79.930 E0.00798
G1 X156.527 Y79.700 E0.00798
G1 X156.461 Y79.454 E0.00798
G1 X156.447 Y79.287 E0.00526
G1 X156.196 Y79.089 F9000.000
;WIPE_START
G1 F7200.000
G1 X156.461 Y78.946 E-0.09439
G1 X156.527 Y78.700 E-0.07055
G1 X156.635 Y78.470 E-0.07056
G1 X156.781 Y78.261 E-0.07055
G1 X156.961 Y78.081 E-0.07056
G1 X157.170 Y77.935 E-0.07055
G1 X157.400 Y77.827 E-0.07056
G1 X157.646 Y77.761 E-0.07055
G1 X157.894 Y77.740 E-0.06892
G1 X158.153 Y77.761 E-0.07204
G1 X158.400 Y77.827 E-0.07068
G1 X158.630 Y77.935 E-0.07055
G1 X158.839 Y78.081 E-0.07056
G1 X159.019 Y78.261 E-0.07055
G1 X159.165 Y78.470 E-0.07055
G1 X159.270 Y78.695 E-0.06892
G1 X159.339 Y78.946 E-0.07204
G1 X159.361 Y79.200 E-0.07068
G1 X159.349 Y79.330 E-0.03622
;WIPE_END
G1 E-0.07000 F2100.000
G1 Z0.400 F9000.000
G1 X158.832 Y74.709
G1 Z0.200
G1 E1.40000 F2100.000
;TYPE:Perimeter
G1 F1200.000
G1 X159.261 Y74.773 E0.01358
G1 X159.681 Y74.878 E0.01358
G1 X160.088 Y75.024 E0.01358
G1 X160.480 Y75.209 E0.01358
G1 X160.851 Y75.431 E0.01358
G1 X161.199 Y75.689 E0.01358
G1 X161.520 Y75.980 E0.01358
G1 X161.811 Y76.301 E0.01358
G1 X162.069 Y76.649 E0.01358
G1 X162.291 Y77.020 E0.01358
G1 X162.476 Y77.412 E0.01358
G1 X162.622 Y77.819 E0.01358
G1 X162.727 Y78.239 E0.01358
G1 X162.791 Y78.668 E0.01358
G1 X162.813 Y79.114 E0.01403
G1 X162.813 Y140.886 E1.93679
G1 X162.791 Y141.332 E0.01403
G1 X162.727 Y141.761 E0.01358
G1 X162.622 Y142.181 E0.01358
G1 X162.476 Y142.588 E0.01358
G1 X162.291 Y142.980 E0.01356
G1 X162.065 Y143.357 E0.01380
G1 X161.811 Y143.699 E0.01336
G1 X161.520 Y144.020 E0.01358
G1 X161.199 Y144.311 E0.01358
G1 X160.851 Y144.569 E0.01358
G1 X160.480 Y144.791 E0.01358
G1 X160.088 Y144.976 E0.01358
G1 X159.681 Y145.122 E0.01358
G1 X159.261 Y145.227 E0.01358
G1 X158.832 Y145.291 E0.01358
G1 X158.386 Y145.313 E0.01403
G1 X61.614 Y145.313 E3.03419
G1 X61.168 Y145.291 E0.01403
G1 X60.739 Y145.227 E0.01358
G1 X60.319 Y145.122 E0.01358
G1 X59.912 Y144.976 E0.01358
G1 X59.520 Y144.791 E0.01356
G1 X59.143 Y144.565 E0.01380
G1 X58.801 Y144.311 E0.01336
G1 X58.480 Y144.020 E0.01358
G1 X58.189 Y143.699 E0.01358
G1 X57.931 Y143.351 E0.01358
G1 X57.709 Y142.980 E0.01358
G1 X57.524 Y142.588 E0.01358
G1 X57.378 Y142.181 E0.01358
G1 X57.273 Y141.761 E0.01358
G1 X57.209 Y141.332 E0.01358
G1 X57.187 Y140.886 E0.01403
G1 X57.187 Y79.114 E1.93679
G1 X57.209 Y78.668 E0.01403
G1 X57.273 Y78.239 E0.01358
G1 X57.378 Y77.819 E0.01358
G1 X57.524 Y77.412 E0.01358
G1 X57.709 Y77.020 E0.01356
G1 X57.935 Y76.643 E0.01380
G1 X58.189 Y76.301 E0.01336
G1 X58.480 Y75.980 E0.01358
G1 X58.801 Y75.689 E0.01358
G1 X59.149 Y75.431 E0.01358
G1 X59.520 Y75.209 E0.01358
G1 X59.912 Y75.024 E0.01358
G1 X60.319 Y74.878 E0.01358
G1 X60.739 Y74.773 E0.01358
G1 X61.168 Y74.709 E0.01358
G1 X61.614 Y74.687 E0.01403
G1 X158.393 Y74.687 E3.03442
G1 X158.773 Y74.706 E0.01192
G1 X158.791 Y74.329 F9000.000
;TYPE:External perimeter
G1 F1200.000
G1 X159.334 Y74.402 E0.01719
G1 X159.790 Y74.516 E0.01474
G1 X160.233 Y74.675 E0.01474
G1 X160.658 Y74.876 E0.01474
G1 X161.061 Y75.117 E0.01474
G1 X161.439 Y75.397 E0.01474
G1 X161.787 Y75.713 E0.01474
G1 X162.103 Y76.061 E0.01474
G1 X162.383 Y76.439 E0.01474
G1 X162.624 Y76.842 E0.01474
G1 X162.825 Y77.267 E0.01474
G1 X162.984 Y77.710 E0.01474
G1 X163.098 Y78.166 E0.01474
G1 X163.167 Y78.631 E0.01474
G1 X163.190 Y79.105 E0.01490
G1 X163.190 Y140.895 E1.93737
G1 X163.167 Y141.369 E0.01490
G1 X163.098 Y141.834 E0.01474
G1 X162.984 Y142.290 E0.01474
G1 X162.825 Y142.733 E0.01474
G1 X162.624 Y143.158 E0.01473
G1 X162.378 Y143.567 E0.01496
G1 X162.103 Y143.939 E0.01451
G1 X161.787 Y144.287 E0.01474
G1 X161.439 Y144.603 E0.01474
G1 X161.061 Y144.883 E0.01474
G1 X160.658 Y145.124 E0.01474
G1 X160.233 Y145.325 E0.01474
G1 X159.790 Y145.484 E0.01474
G1 X159.334 Y145.598 E0.01474
G1 X158.869 Y145.667 E0.01474
G1 X158.395 Y145.690 E0.01490
G1 X61.605 Y145.690 E3.03477
G1 X61.131 Y145.667 E0.01490
G1 X60.666 Y145.598 E0.01474
G1 X60.210 Y145.484 E0.01474
G1 X59.767 Y145.325 E0.01474
G1 X59.342 Y145.124 E0.01473
