; generated by PrusaSlicer 2.3.1+arm64 on 2021-08-23 at 20:44:16 UTC

; 

; external perimeters extrusion width = 0.45mm
; perimeters extrusion width = 0.45mm
; infill extrusion width = 0.45mm
; solid infill extrusion width = 0.45mm
; top infill extrusion width = 0.40mm
; first layer extrusion width = 0.42mm

M201 X500 Y500 Z100 E5000 ; sets maximum accelerations, mm/sec^2
M203 X500 Y500 Z10 E60 ; sets maximum feedrates, mm/sec
M204 P500 R1000 T500 ; sets acceleration (P, T) and retract acceleration (R), mm/sec^2
M205 X8.00 Y8.00 Z0.40 E5.00 ; sets the jerk limits, mm/sec
M205 S0 T0 ; sets the minimum extruding and travel feed rate, mm/sec
M107
;TYPE:Custom
G90 ; use absolute coordinates
M83 ; extruder relative mode
M104 S240 ; set extruder temp
M140 S85 ; set bed temp
M190 S85 ; wait for bed temp
M109 S240 ; wait for extruder temp
G28 ; home all
G1 Z2 F240
G1 X2 Y10 F3000
G1 Z0.28 F240
G92 E0.0
G1 Y190 E15.0 F1500.0 ; intro line
G1 X2.3 F5000
G1 Y10 E30 F1200.0 ; intro line
G92 E0.0
G21 ; set units to millimeters
G90 ; use absolute coordinates
M83 ; use relative distances for extrusion
M900 K0.08 ; Filament gcode LA 1.5
M900 K45 ; Filament gcode LA 1.0
;LAYER_CHANGE
;Z:0.2
;HEIGHT:0.2
;BEFORE_LAYER_CHANGE
;0.2


G1 E-1.40000 F2100.000
G1 Z0.200 F9000.000
;AFTER_LAYER_CHANGE
;0.2
G1 Z0.400
G1 X56.267 Y76.249
G1 Z0.200
G1 E1.40000 F2100.000
;TYPE:Skirt
;WIDTH:0.42
G1 F1200.000
G1 X57.005 Y75.170 E0.04100
G1 X57.670 Y74.505 E0.02948
G1 X58.190 Y74.106 E0.02053
G1 X58.852 Y73.715 E0.02412
G1 X59.825 Y73.319 E0.03294
G1 X60.541 Y73.147 E0.02310
G1 X61.571 Y73.053 E0.03243
G1 X158.404 Y73.053 E3.03612
G1 X159.580 Y73.169 E0.03705
G1 X160.711 Y73.511 E0.03704
G1 X161.753 Y74.067 E0.03704
G1 X162.656 Y74.804 E0.03653
G1 X163.419 Y75.727 E0.03755
G1 X163.973 Y76.752 E0.03653
G1 X164.324 Y77.884 E0.03717
G1 X164.445 Y78.973 E0.03435
G1 X164.445 Y141.007 E1.94502
G1 X164.217 Y142.549 E0.04889
G1 X163.729 Y143.758 E0.04088
G1 X162.995 Y144.830 E0.04075
G1 X162.330 Y145.495 E0.02948
G1 X161.810 Y145.894 E0.02053
G1 X161.148 Y146.285 E0.02412
G1 X160.175 Y146.681 E0.03294
G1 X159.459 Y146.853 E0.02310
G1 X158.429 Y146.947 E0.03243
G1 X61.559 Y146.947 E3.03728
G1 X60.889 Y146.904 E0.02105
G1 X59.967 Y146.721 E0.02948
G1 X58.753 Y146.235 E0.04100
G1 X57.673 Y145.497 E0.04100
G1 X57.005 Y144.830 E0.02961
G1 X56.606 Y144.310 E0.02053
G1 X56.215 Y143.648 E0.02412
G1 X55.820 Y142.679 E0.03282
G1 X55.648 Y141.963 E0.02310
G1 X55.553 Y140.945 E0.03205
G1 X55.553 Y79.039 E1.94103
G1 X55.596 Y78.385 E0.02053
G1 X55.780 Y77.463 E0.02948
G1 X56.244 Y76.305 E0.03912
;WIPE_START
G1 F7200.000
G1 X57.005 Y75.170 E-0.37859
G1 X57.670 Y74.505 E-0.26052
G1 X58.190 Y74.106 E-0.18143
G1 X58.852 Y73.715 E-0.21318
G1 X59.825 Y73.319 E-0.29113
G1 X59.843 Y73.315 E-0.00515
;WIPE_END
G1 E-0.07000 F2100.000
G1 Z0.400 F9000.000
G1 X57.287 Y75.421
G1 Z0.200
G1 E1.40000 F2100.000
G1 F1200.000
G1 X58.413 Y74.410 E0.04744
G1 X59.020 Y74.052 E0.02209
G1 X59.941 Y73.678 E0.03116
G1 X60.600 Y73.520 E0.02126
G1 X61.579 Y73.430 E0.03081
G1 X158.404 Y73.430 E3.03589
G1 X159.508 Y73.539 E0.03478
G1 X160.568 Y73.860 E0.03473
G1 X161.545 Y74.382 E0.03473
G1 X162.394 Y75.075 E0.03438
G1 X163.109 Y75.941 E0.03521
G1 X163.629 Y76.907 E0.03438
G1 X163.956 Y77.969 E0.03485
G1 X164.068 Y78.995 E0.03235
G1 X164.069 Y140.988 E1.94374
G1 X163.853 Y142.452 E0.04641
G1 X163.397 Y143.581 E0.03818
G1 X162.713 Y144.579 E0.03794
G1 X161.587 Y145.590 E0.04744
G1 X160.980 Y145.948 E0.02209
G1 X160.059 Y146.322 E0.03116
G1 X159.400 Y146.480 E0.02126
G1 X158.421 Y146.570 E0.03081
G1 X61.566 Y146.570 E3.03684
G1 X60.059 Y146.355 E0.04772
G1 X58.929 Y145.902 E0.03817
G1 X57.921 Y145.213 E0.03829
G1 X56.910 Y144.087 E0.04744
G1 X56.552 Y143.480 E0.02210
G1 X56.179 Y142.563 E0.03104
G1 X56.020 Y141.904 E0.02126
G1 X55.930 Y140.937 E0.03045
G1 X55.930 Y79.050 E1.94040
G1 X56.145 Y77.555 E0.04736
G1 X56.600 Y76.426 E0.03817
G1 X57.253 Y75.470 E0.03629
;WIPE_START
G1 F7200.000
G1 X58.413 Y74.410 E-0.43538
G1 X59.020 Y74.052 E-0.19526
G1 X59.941 Y73.678 E-0.27540
G1 X60.600 Y73.520 E-0.18789
G1 X61.449 Y73.442 E-0.23607
;WIPE_END
G1 E-0.07000 F2100.000
G1 Z0.400 F9000.000
G1 X156.307 Y139.681
G1 Z0.200
G1 E1.40000 F2100.000
;TYPE:Perimeter
G1 F1200.000
G1 X156.488 Y139.421 E0.00992
G1 X156.714 Y139.194 E0.01003
G1 X156.976 Y139.010 E0.01005
G1 X157.267 Y138.873 E0.01010
G1 X157.588 Y138.788 E0.01041
G1 X157.895 Y138.761 E0.00966
G1 X158.213 Y138.788 E0.01002
G1 X158.523 Y138.870 E0.01005
G1 X158.814 Y139.004 E0.01005
G1 X159.077 Y139.187 E0.01005
G1 X159.304 Y139.412 E0.01005
G1 X159.489 Y139.674 E0.01005
G1 X159.626 Y139.965 E0.01009
G1 X159.712 Y140.287 E0.01046
G1 X159.739 Y140.608 E0.01008
G1 X159.710 Y140.927 E0.01004
G1 X159.626 Y141.236 E0.01005
G1 X159.490 Y141.525 E0.01001
G1 X159.313 Y141.777 E0.00967
G1 X159.078 Y142.012 E0.01042
G1 X158.814 Y142.196 E0.01009
G1 X158.523 Y142.330 E0.01005
G1 X158.213 Y142.412 E0.01005
G1 X157.894 Y142.439 E0.01005
G1 X157.575 Y142.410 E0.01005
G1 X157.266 Y142.326 E0.01005
G1 X156.976 Y142.190 E0.01002
G1 X156.724 Y142.014 E0.00966
G1 X156.489 Y141.780 E0.01039
G1 X156.307 Y141.519 E0.00997
G1 X156.172 Y141.229 E0.01004
G1 X156.089 Y140.919 E0.01005
G1 X156.061 Y140.600 E0.01005
G1 X156.089 Y140.281 E0.01005
G1 X156.172 Y139.971 E0.01005
G1 X156.282 Y139.735 E0.00816
G1 X156.623 Y139.894 F9000.000
;TYPE:External perimeter
G1 F1200.000
G1 X156.779 Y139.664 E0.00871
G1 X156.958 Y139.484 E0.00797
G1 X157.166 Y139.337 E0.00798
G1 X157.397 Y139.229 E0.00800
G1 X157.653 Y139.161 E0.00832
G1 X157.896 Y139.139 E0.00762
G1 X158.149 Y139.161 E0.00797
G1 X158.395 Y139.226 E0.00798
G1 X158.626 Y139.332 E0.00798
G1 X158.835 Y139.478 E0.00798
G1 X159.015 Y139.657 E0.00798
G1 X159.162 Y139.865 E0.00798
G1 X159.271 Y140.095 E0.00799
G1 X159.339 Y140.352 E0.00834
G1 X159.361 Y140.606 E0.00799
G1 X159.337 Y140.860 E0.00798
G1 X159.270 Y141.105 E0.00798
G1 X159.162 Y141.335 E0.00796
G1 X159.023 Y141.534 E0.00763
G1 X158.835 Y141.722 E0.00833
G1 X158.626 Y141.868 E0.00799
G1 X158.395 Y141.974 E0.00798
G1 X158.149 Y142.039 E0.00798
G1 X157.895 Y142.061 E0.00798
G1 X157.642 Y142.038 E0.00798
G1 X157.396 Y141.971 E0.00798
G1 X157.166 Y141.863 E0.00797
G1 X156.967 Y141.724 E0.00762
G1 X156.779 Y141.536 E0.00832
G1 X156.635 Y141.330 E0.00789
G1 X156.527 Y141.100 E0.00798
G1 X156.461 Y140.854 E0.00798
G1 X156.439 Y140.600 E0.00798
G1 X156.461 Y140.346 E0.00798
G1 X156.527 Y140.100 E0.00798
G1 X156.598 Y139.949 E0.00525
G1 X156.481 Y139.656 F9000.000
;WIPE_START
G1 F7200.000
G1 X156.779 Y139.664 E-0.09342
G1 X156.958 Y139.484 E-0.07046
G1 X157.166 Y139.337 E-0.07050
G1 X157.397 Y139.229 E-0.07066
G1 X157.653 Y139.161 E-0.07356
G1 X157.896 Y139.139 E-0.06737
G1 X158.149 Y139.161 E-0.07041
G1 X158.395 Y139.226 E-0.07050
G1 X158.626 Y139.332 E-0.07050
G1 X158.835 Y139.478 E-0.07050
G1 X159.015 Y139.657 E-0.07050
G1 X159.162 Y139.865 E-0.07050
G1 X159.271 Y140.095 E-0.07063
G1 X159.339 Y140.352 E-0.07372
G1 X159.361 Y140.606 E-0.07062
G1 X159.337 Y140.860 E-0.07050
G1 X159.270 Y141.105 E-0.07050
G1 X159.162 Y141.335 E-0.07039
G1 X159.090 Y141.438 E-0.03475
;WIPE_END
G1 E-0.07000 F2100.000
G1 Z0.400 F9000.000
G1 X157.900 Y81.039
G1 Z0.200
G1 E1.40000 F2100.000
;TYPE:Perimeter
G1 F1200.000
G1 X157.581 Y81.011 E0.01005
G1 X157.271 Y80.928 E0.01005
G1 X156.980 Y80.793 E0.01005
G1 X156.718 Y80.609 E0.01005
G1 X156.491 Y80.382 E0.01005
G1 X156.307 Y80.120 E0.01005
G1 X156.172 Y79.829 E0.01005
G1 X156.089 Y79.519 E0.01005
G1 X156.061 Y79.200 E0.01005
G1 X156.089 Y78.881 E0.01005
G1 X156.172 Y78.571 E0.01005
G1 X156.307 Y78.280 E0.01005
G1 X156.491 Y78.018 E0.01005
G1 X156.718 Y77.791 E0.01005
G1 X156.980 Y77.607 E0.01005
G1 X157.271 Y77.472 E0.01005
G1 X157.581 Y77.389 E0.01005
G1 X157.887 Y77.362 E0.00963
G1 X158.217 Y77.388 E0.01039
G1 X158.529 Y77.472 E0.01013
G1 X158.820 Y77.607 E0.01005
G1 X159.082 Y77.791 E0.01005
G1 X159.309 Y78.018 E0.01005
G1 X159.493 Y78.280 E0.01005
G1 X159.623 Y78.559 E0.00963
G1 X159.711 Y78.878 E0.01039
G1 X159.739 Y79.200 E0.01013
G1 X159.711 Y79.519 E0.01005
G1 X159.628 Y79.829 E0.01005
G1 X159.493 Y80.120 E0.01005
G1 X159.317 Y80.371 E0.00963
G1 X159.084 Y80.608 E0.01039
G1 X158.820 Y80.793 E0.01013
G1 X158.529 Y80.928 E0.01005
G1 X158.219 Y81.011 E0.01005
G1 X157.960 Y81.034 E0.00817
G1 X157.927 Y80.658 F9000.000
;TYPE:External perimeter
G1 F1200.000
G1 X157.646 Y80.639 E0.00882
G1 X157.400 Y80.573 E0.00798
G1 X157.170 Y80.465 E0.00798
G1 X156.961 Y80.319 E0.00798
G1 X156.781 Y80.139 E0.00798
G1 X156.635 Y79.930 E0.00798
G1 X156.527 Y79.700 E0.00798
G1 X156.461 Y79.454 E0.00798
G1 X156.439 Y79.200 E0.00798
G1 X156.461 Y78.946 E0.00798
G1 X156.527 Y78.700 E0.00798
G1 X156.635 Y78.470 E0.00798
G1 X156.781 Y78.261 E0.00798
G1 X156.961 Y78.081 E0.00798
G1 X157.170 Y77.935 E0.00798
G1 X157.400 Y77.827 E0.00798
G1 X157.646 Y77.761 E0.00798
G1 X157.888 Y77.740 E0.00761
G1 X158.153 Y77.761 E0.00832
G1 X158.400 Y77.827 E0.00801
G1 X158.630 Y77.935 E0.00798
G1 X158.839 Y78.081 E0.00798
G1 X159.019 Y78.261 E0.00798
G1 X159.165 Y78.470 E0.00798
G1 X159.268 Y78.690 E0.00761
G1 X159.339 Y78.945 E0.00832
G1 X159.361 Y79.200 E0.00801
G1 X159.339 Y79.454 E0.00798
G1 X159.273 Y79.700 E0.00798
G1 X159.165 Y79.930 E0.00798
G1 X159.026 Y80.129 E0.00761
G1 X158.840 Y80.319 E0.00832
G1 X158.630 Y80.465 E0.00801
G1 X158.400 Y80.573 E0.00798
G1 X158.154 Y80.639 E0.00798
G1 X157.987 Y80.653 E0.00526
G1 X157.789 Y80.904 F9000.000
;WIPE_START
G1 F7200.000
G1 X157.646 Y80.639 E-0.09439
G1 X157.400 Y80.573 E-0.07055
G1 X157.170 Y80.465 E-0.07056
G1 X156.961 Y80.319 E-0.07056
G1 X156.781 Y80.139 E-0.07056
G1 X156.635 Y79.930 E-0.07055
G1 X156.527 Y79.700 E-0.07055
G1 X156.461 Y79.454 E-0.07056
G1 X156.439 Y79.200 E-0.07055
G1 X156.461 Y78.946 E-0.07055
G1 X156.527 Y78.700 E-0.07055
G1 X156.635 Y78.470 E-0.07056
G1 X156.781 Y78.261 E-0.07055
G1 X156.961 Y78.081 E-0.07056
G1 X157.170 Y77.935 E-0.07055
G1 X157.400 Y77.827 E-0.07056
G1 X157.646 Y77.761 E-0.07055
G1 X157.888 Y77.740 E-0.06729
G1 X158.030 Y77.751 E-0.03944
;WIPE_END
G1 E-0.07000 F2100.000
G1 Z0.400 F9000.000
G1 X63.739 Y79.200
G1 Z0.200
G1 E1.40000 F2100.000
;TYPE:Perimeter
G1 F1200.000
G1 X63.711 Y79.519 E0.01005
G1 X63.628 Y79.829 E0.01005
G1 X63.493 Y80.120 E0.01005
G1 X63.317 Y80.371 E0.00963
G1 X63.084 Y80.608 E0.01039
G1 X62.820 Y80.793 E0.01013
G1 X62.529 Y80.928 E0.01005
G1 X62.219 Y81.011 E0.01005
G1 X61.900 Y81.039 E0.01005
G1 X61.581 Y81.011 E0.01005
G1 X61.271 Y80.928 E0.01005
G1 X60.980 Y80.793 E0.01005
G1 X60.718 Y80.609 E0.01005
G1 X60.491 Y80.382 E0.01005
G1 X60.307 Y80.120 E0.01005
G1 X60.172 Y79.829 E0.01005
G1 X60.089 Y79.519 E0.01005
G1 X60.061 Y79.200 E0.01005
G1 X60.089 Y78.881 E0.01005
G1 X60.172 Y78.571 E0.01005
G1 X60.307 Y78.280 E0.01005
G1 X60.491 Y78.018 E0.01005
G1 X60.718 Y77.791 E0.01005
G1 X60.980 Y77.607 E0.01005
G1 X61.271 Y77.472 E0.01005
G1 X61.581 Y77.389 E0.01005
G1 X61.887 Y77.362 E0.00963
G1 X62.217 Y77.388 E0.01039
G1 X62.529 Y77.472 E0.01013
G1 X62.820 Y77.607 E0.01005
G1 X63.082 Y77.791 E0.01005
G1 X63.309 Y78.018 E0.01005
G1 X63.493 Y78.280 E0.01005
G1 X63.623 Y78.559 E0.00963
G1 X63.711 Y78.878 E0.01039
G1 X63.734 Y79.140 E0.00825
G1 X63.358 Y79.173 F9000.000
;TYPE:External perimeter
G1 F1200.000
G1 X63.339 Y79.454 E0.00882
G1 X63.273 Y79.700 E0.00798
G1 X63.165 Y79.930 E0.00798
G1 X63.026 Y80.129 E0.00761
G1 X62.840 Y80.319 E0.00832
G1 X62.630 Y80.465 E0.00801
G1 X62.400 Y80.573 E0.00798
G1 X62.154 Y80.639 E0.00798
G1 X61.900 Y80.661 E0.00798
G1 X61.646 Y80.639 E0.00798
G1 X61.400 Y80.573 E0.00798
G1 X61.170 Y80.465 E0.00798
G1 X60.961 Y80.319 E0.00798
G1 X60.781 Y80.139 E0.00798
G1 X60.635 Y79.930 E0.00798
G1 X60.527 Y79.700 E0.00798
G1 X60.461 Y79.454 E0.00798
G1 X60.439 Y79.200 E0.00798
G1 X60.461 Y78.946 E0.00798
G1 X60.527 Y78.700 E0.00798
G1 X60.635 Y78.470 E0.00798
G1 X60.781 Y78.261 E0.00798
G1 X60.961 Y78.081 E0.00798
G1 X61.170 Y77.935 E0.00798
G1 X61.400 Y77.827 E0.00798
G1 X61.646 Y77.761 E0.00798
G1 X61.888 Y77.740 E0.00761
G1 X62.153 Y77.761 E0.00832
G1 X62.400 Y77.827 E0.00801
G1 X62.630 Y77.935 E0.00798
G1 X62.839 Y78.081 E0.00798
G1 X63.019 Y78.261 E0.00798
G1 X63.165 Y78.470 E0.00798
G1 X63.268 Y78.690 E0.00761
G1 X63.339 Y78.945 E0.00832
G1 X63.353 Y79.113 E0.00528
G1 X63.604 Y79.310 F9000.000
;WIPE_START
G1 F7200.000
G1 X63.339 Y79.454 E-0.09439
G1 X63.273 Y79.700 E-0.07056
G1 X63.165 Y79.930 E-0.07055
G1 X63.026 Y80.129 E-0.06729
G1 X62.840 Y80.319 E-0.07353
G1 X62.630 Y80.465 E-0.07080
G1 X62.400 Y80.573 E-0.07055
G1 X62.154 Y80.639 E-0.07056
G1 X61.900 Y80.661 E-0.07055
G1 X61.646 Y80.639 E-0.07055
G1 X61.400 Y80.573 E-0.07055
G1 X61.170 Y80.465 E-0.07056
G1 X60.961 Y80.319 E-0.07056
G1 X60.781 Y80.139 E-0.07056
G1 X60.635 Y79.930 E-0.07055
G1 X60.527 Y79.700 E-0.07055
G1 X60.461 Y79.454 E-0.07056
G1 X60.439 Y79.200 E-0.07055
G1 X60.451 Y79.070 E-0.03622
;WIPE_END
G1 E-0.07000 F2100.000
G1 Z0.400 F9000.000
G1 X61.887 Y138.762
G1 Z0.200
G1 E1.40000 F2100.000
;TYPE:Perimeter
G1 F1200.000
G1 X62.217 Y138.788 E0.01039
G1 X62.529 Y138.872 E0.01013
G1 X62.820 Y139.007 E0.01005
G1 X63.082 Y139.191 E0.01005
G1 X63.309 Y139.418 E0.01005
G1 X63.493 Y139.680 E0.01005
G1 X63.623 Y139.959 E0.00963
G1 X63.711 Y140.278 E0.01039
G1 X63.739 Y140.600 E0.01013
G1 X63.711 Y140.919 E0.01005
G1 X63.628 Y141.229 E0.01005
G1 X63.493 Y141.520 E0.01005
G1 X63.317 Y141.771 E0.00963
G1 X63.084 Y142.008 E0.01039
G1 X62.820 Y142.193 E0.01013
G1 X62.529 Y142.328 E0.01005
G1 X62.219 Y142.411 E0.01005
G1 X61.900 Y142.439 E0.01005
G1 X61.581 Y142.411 E0.01005
G1 X61.271 Y142.328 E0.01005
G1 X60.980 Y142.193 E0.01005
G1 X60.718 Y142.009 E0.01005
G1 X60.491 Y141.782 E0.01005
G1 X60.307 Y141.520 E0.01005
G1 X60.172 Y141.229 E0.01005
G1 X60.089 Y140.919 E0.01005
G1 X60.061 Y140.600 E0.01005
G1 X60.089 Y140.281 E0.01005
G1 X60.172 Y139.971 E0.01005
G1 X60.307 Y139.680 E0.01005
G1 X60.491 Y139.418 E0.01005
G1 X60.718 Y139.191 E0.01005
G1 X60.980 Y139.007 E0.01005
G1 X61.271 Y138.872 E0.01005
G1 X61.581 Y138.789 E0.01005
G1 X61.827 Y138.767 E0.00775
G1 X61.860 Y139.143 F9000.000
;TYPE:External perimeter
G1 F1200.000
G1 X62.153 Y139.161 E0.00921
G1 X62.400 Y139.227 E0.00801
G1 X62.630 Y139.335 E0.00798
G1 X62.839 Y139.481 E0.00798
G1 X63.019 Y139.661 E0.00798
G1 X63.165 Y139.870 E0.00798
G1 X63.268 Y140.090 E0.00761
G1 X63.339 Y140.345 E0.00832
G1 X63.361 Y140.600 E0.00801
G1 X63.339 Y140.854 E0.00798
G1 X63.273 Y141.100 E0.00798
G1 X63.165 Y141.330 E0.00798
G1 X63.026 Y141.529 E0.00761
G1 X62.840 Y141.719 E0.00832
G1 X62.630 Y141.865 E0.00801
G1 X62.400 Y141.973 E0.00798
G1 X62.154 Y142.039 E0.00798
G1 X61.900 Y142.061 E0.00798
G1 X61.646 Y142.039 E0.00798
G1 X61.400 Y141.973 E0.00798
G1 X61.170 Y141.865 E0.00798
G1 X60.961 Y141.719 E0.00798
G1 X60.781 Y141.539 E0.00798
G1 X60.635 Y141.330 E0.00798
G1 X60.527 Y141.100 E0.00798
G1 X60.461 Y140.854 E0.00798
G1 X60.439 Y140.600 E0.00798
G1 X60.461 Y140.346 E0.00798
G1 X60.527 Y140.100 E0.00798
G1 X60.635 Y139.870 E0.00798
G1 X60.781 Y139.661 E0.00798
G1 X60.961 Y139.481 E0.00798
G1 X61.170 Y139.335 E0.00798
G1 X61.400 Y139.227 E0.00798
G1 X61.646 Y139.161 E0.00798
G1 X61.800 Y139.148 E0.00484
G1 X62.002 Y138.886 F9000.000
;WIPE_START
G1 F7200.000
G1 X62.153 Y139.161 E-0.09782
G1 X62.400 Y139.227 E-0.07080
G1 X62.630 Y139.335 E-0.07055
G1 X62.839 Y139.481 E-0.07056
G1 X63.019 Y139.661 E-0.07055
G1 X63.165 Y139.870 E-0.07055
G1 X63.268 Y140.090 E-0.06729
G1 X63.339 Y140.345 E-0.07353
G1 X63.361 Y140.600 E-0.07080
G1 X63.339 Y140.854 E-0.07056
G1 X63.273 Y141.100 E-0.07056
G1 X63.165 Y141.330 E-0.07055
G1 X63.026 Y141.529 E-0.06729
G1 X62.840 Y141.719 E-0.07353
G1 X62.630 Y141.865 E-0.07080
G1 X62.400 Y141.973 E-0.07055
G1 X62.154 Y142.039 E-0.07056
G1 X61.900 Y142.061 E-0.07055
G1 X61.783 Y142.051 E-0.03259
;WIPE_END
G1 E-0.07000 F2100.000
G1 Z0.400 F9000.000
G1 X59.516 Y141.531
G1 Z0.200
G1 E1.40000 F2100.000
;TYPE:Perimeter
G1 F1200.000
G1 X59.433 Y141.113 E0.01336
G1 X59.422 Y140.886 E0.00715
G1 X59.422 Y79.114 E1.93679
